fs/star_one_quarter_16_regular.svg

<svg viewBox="0 0 16 16" fill="none" xmlns="http://www.w3.org/2000/svg" height="1em" width="1em">
  <path d="M8.80802 2.10167C8.47789 1.43274 7.52403 1.43275 7.1939 2.10167L5.67281 5.18371L2.27156 5.67794C1.79144 5.7477 1.49891 6.15584 1.5 6.57594C1.50059 6.80176 1.58602 7.03104 1.77277 7.21307L4.23394 9.6121L3.65294 12.9996C3.65294 12.9996 3.65294 12.9996 3.65294 12.9996C3.61063 13.2463 3.66938 13.4733 3.79108 13.653C4.03211 14.0089 4.52005 14.179 4.95879 13.9484L8.00096 12.349L11.0431 13.9484C11.7034 14.2955 12.4751 13.7348 12.349 12.9996L11.768 9.61212L14.2291 7.21307C14.7633 6.69239 14.4685 5.78522 13.7304 5.67795L10.3291 5.18372L8.80802 2.10167ZM6 12.2712V6.13652C6.2364 6.06497 6.43523 5.89845 6.54628 5.67343L8.00096 2.72593L9.45564 5.67343C9.58673 5.93906 9.84014 6.12317 10.1333 6.16577L13.386 6.63842L11.0323 8.93273C10.8202 9.13949 10.7234 9.43739 10.7735 9.72935L11.3291 12.969L8.41977 11.4394C8.15758 11.3016 7.84434 11.3016 7.58215 11.4394L6 12.2712Z" fill="#212121"/>
</svg>

<svg viewBox="0 0 16 16" fill="none" xmlns="http://www.w3.org/2000/svg" height="1em" width="1em">
  <path d="M8.808 2.102a.9.9 0 0 0-1.614 0L5.673 5.184l-3.401.494a.898.898 0 0 0-.5 1.535l2.462 2.4L3.653 13a.899.899 0 0 0 1.306.949L8 12.348l3.042 1.6a.9.9 0 0 0 1.306-.95l-.581-3.387 2.461-2.399a.9.9 0 0 0-.499-1.535l-3.4-.494-1.522-3.082ZM6 12.272V6.136a.9.9 0 0 0 .546-.464l1.455-2.947 1.455 2.947a.9.9 0 0 0 .677.493l3.253.472-2.354 2.295a.9.9 0 0 0-.258.796l.555 3.24-2.91-1.53a.9.9 0 0 0-.837 0L6 12.271Z" fill="#212121"/>
</svg>
